packages/foundations/assets/icons/functional/images/human/toys.svg

<svg xmlns="http://www.w3.org/2000/svg" width="32" height="32" fill="none"><path fill="#1A1C1F" fill-rule="evenodd" d="M8.871 2.106a5.91 5.91 0 0 0-4.114 3.007C4.305 5.962 4 7.205 4 8.2c0 1.41.608 2.822 1.718 3.991l.363.383-.056.646c-.057.656-.002 1.878.111 2.474.085.448.087.445-.308.573a5.513 5.513 0 0 0-3.373 7.424c.193.456.639 1.14 1.007 1.547.614.678 1.608 1.278 2.591 1.566.655.191 1.768.239 2.43.106a5.6 5.6 0 0 0 1.418-.468c.187-.091.347-.156.356-.144l.43.512.413.489-.063.321c-.271 1.377.983 2.615 2.357 2.329a2 2 0 0 0 1.424-1.14c.123-.261.142-.372.142-.809s-.019-.548-.142-.809a2.1 2.1 0 0 0-.911-.954c-.288-.154-.398-.181-.801-.201l-.468-.022-.426-.495c-.234-.272-.425-.509-.425-.526s.111-.194.248-.392a5.48 5.48 0 0 0 .066-6.099 5.53 5.53 0 0 0-3.368-2.352 10 10 0 0 1-.508-.124 5 5 0 0 1-.103-.485c-.122-.648-.121-2.248 0-2.981l.119-.72c.029-.181.018-.194-.317-.418a5.2 5.2 0 0 1-1.317-1.33c-.463-.709-.611-1.287-.567-2.214a3.9 3.9 0 0 1 .528-1.851c.262-.474.982-1.215 1.441-1.484a4.1 4.1 0 0 1 2.299-.523c1.078.075 1.715.38 2.611 1.252l.466.453.494-.168c1.113-.378 2.058-.543 3.109-.543 1.134-.001 1.802.113 3.046.518l.594.194.34-.345c.977-.992 2.027-1.432 3.245-1.359.618.036.953.123 1.515.394 1.979.951 2.827 3.367 1.871 5.326-.337.689-.908 1.309-1.656 1.798l-.217.141.106.546c.087.445.107.775.109 1.773.002 1.085-.011 1.291-.119 1.787-.392 1.803-1.191 3.271-2.484 4.564-1.293 1.292-2.726 2.071-4.567 2.482-.502.112-.7.125-1.971.131-.777.004-1.455.01-1.507.015-.15.013-.508.372-.576.577-.1.303-.04.724.135.953.229.301.499.392 1.364.462 1.888.154 3.962-.26 5.725-1.143 1.635-.818 3.138-2.149 4.202-3.721.957-1.415 1.626-3.274 1.801-5.006.065-.64.069-1.63.009-2.168l-.042-.373.318-.32c1.153-1.159 1.759-2.619 1.759-4.24a5.94 5.94 0 0 0-3.295-5.346c-.886-.448-1.662-.627-2.72-.627-1.34 0-2.242.281-3.38 1.052l-.509.345-.456-.11c-.806-.195-1.678-.289-2.668-.289-1.032 0-1.539.054-2.455.262l-.614.139-.399-.286c-.741-.531-1.52-.874-2.346-1.03-.532-.101-1.729-.103-2.275-.004m3.456 8.474a1.6 1.6 0 0 0-.393.244c-.56.471-.559 1.406.004 1.871.568.469 1.358.381 1.802-.201.391-.512.334-1.163-.141-1.624-.359-.348-.821-.453-1.272-.29m8.98.006c-.325.114-.697.545-.776.898-.054.24-.05.332.024.587.25.861 1.221 1.199 1.943.675.41-.296.61-.994.417-1.454a1.294 1.294 0 0 0-1.608-.706m-5.655 4.449a.8.8 0 0 0-.556.453c-.14.289-.138.434.011.724.167.328.346.443.732.471l.321.023v.446c0 .507-.03.547-.514.693-.382.115-.581.054-.897-.273-.334-.346-.435-.399-.764-.399a.805.805 0 0 0-.821.821c0 .268.055.391.318.713.736.903 2.043 1.153 3.125.599.402-.206.426-.212.551-.13.21.137.783.336 1.129.392.764.123 1.569-.167 2.131-.767.196-.21.349-.429.387-.555a.833.833 0 0 0-.816-1.072c-.27 0-.496.125-.765.421-.319.354-.623.394-1.131.147l-.226-.11v-.939h.258q.454 0 .745-.428c.104-.152.122-.235.104-.467-.026-.321-.148-.518-.42-.678-.166-.098-.287-.107-1.461-.116-.704-.005-1.352.008-1.441.031m-7.233 3.1c.215.059.506.167.648.238l.257.131-.103.272c-.629 1.653-2.165 3.094-4.097 3.84a7 7 0 0 1-.681.234l-.171.037-.123-.39c-.171-.545-.172-1.451-.002-1.99.373-1.182 1.349-2.117 2.5-2.396.481-.116 1.306-.105 1.772.024m2.494 2.615c.109.512.073 1.327-.08 1.81-.524 1.654-2.288 2.712-3.968 2.38-.393-.078-1.052-.329-1.052-.401 0-.019.234-.135.52-.259 1.726-.749 3.435-2.239 4.242-3.698.094-.17.19-.291.212-.269.023.022.079.219.126.437"/></svg>

<svg width="32" height="32" viewBox="0 0 32 32" fill="none" xmlns="http://www.w3.org/2000/svg"><path d="M8.871 2.106 C 7.136 2.420,5.589 3.552,4.757 5.113 C 4.305 5.962,4.000 7.205,4.000 8.200 C 4.000 9.610,4.608 11.022,5.718 12.191 L 6.081 12.574 6.025 13.220 C 5.968 13.876,6.023 15.098,6.136 15.694 C 6.221 16.142,6.223 16.139,5.828 16.267 C 2.735 17.266,1.178 20.692,2.455 23.691 C 2.648 24.147,3.094 24.831,3.462 25.238 C 4.076 25.916,5.070 26.516,6.053 26.804 C 6.708 26.995,7.821 27.043,8.483 26.910 C 9.034 26.798,9.455 26.659,9.901 26.442 C 10.088 26.351,10.248 26.286,10.257 26.298 C 10.266 26.310,10.459 26.540,10.687 26.810 L 11.100 27.299 11.037 27.620 C 10.766 28.997,12.020 30.235,13.394 29.949 C 14.033 29.815,14.534 29.414,14.818 28.809 C 14.941 28.548,14.960 28.437,14.960 28.000 C 14.960 27.563,14.941 27.452,14.818 27.191 C 14.628 26.785,14.310 26.452,13.907 26.237 C 13.619 26.083,13.509 26.056,13.106 26.036 L 12.638 26.014 12.212 25.519 C 11.978 25.247,11.787 25.010,11.787 24.993 C 11.787 24.975,11.898 24.799,12.035 24.601 C 13.290 22.779,13.316 20.353,12.101 18.502 C 11.320 17.313,10.105 16.465,8.733 16.150 C 8.462 16.088,8.233 16.032,8.225 16.026 C 8.217 16.020,8.171 15.802,8.122 15.541 C 8.000 14.893,8.001 13.293,8.122 12.560 C 8.171 12.267,8.224 11.943,8.241 11.840 C 8.270 11.659,8.259 11.646,7.924 11.422 C 7.456 11.110,6.915 10.564,6.607 10.092 C 6.144 9.383,5.996 8.805,6.040 7.878 C 6.074 7.176,6.225 6.646,6.568 6.027 C 6.830 5.553,7.550 4.812,8.009 4.543 C 8.666 4.158,9.516 3.964,10.308 4.020 C 11.386 4.095,12.023 4.400,12.919 5.272 L 13.385 5.725 13.879 5.557 C 14.992 5.179,15.937 5.014,16.988 5.014 C 18.122 5.013,18.790 5.127,20.034 5.532 L 20.628 5.726 20.968 5.381 C 21.945 4.389,22.995 3.949,24.213 4.022 C 24.831 4.058,25.166 4.145,25.728 4.416 C 27.707 5.367,28.555 7.783,27.599 9.742 C 27.262 10.431,26.691 11.051,25.943 11.540 L 25.726 11.681 25.832 12.227 C 25.919 12.672,25.939 13.002,25.941 14.000 C 25.943 15.085,25.930 15.291,25.822 15.787 C 25.430 17.590,24.631 19.058,23.338 20.351 C 22.045 21.643,20.612 22.422,18.771 22.833 C 18.269 22.945,18.071 22.958,16.800 22.964 C 16.023 22.968,15.345 22.974,15.293 22.979 C 15.143 22.992,14.785 23.351,14.717 23.556 C 14.617 23.859,14.677 24.280,14.852 24.509 C 15.081 24.810,15.351 24.901,16.216 24.971 C 18.104 25.125,20.178 24.711,21.941 23.828 C 23.576 23.010,25.079 21.679,26.143 20.107 C 27.100 18.692,27.769 16.833,27.944 15.101 C 28.009 14.461,28.013 13.471,27.953 12.933 L 27.911 12.560 28.229 12.240 C 29.382 11.081,29.988 9.621,29.988 8.000 C 29.988 5.720,28.736 3.688,26.693 2.654 C 25.807 2.206,25.031 2.027,23.973 2.027 C 22.633 2.027,21.731 2.308,20.593 3.079 L 20.084 3.424 19.628 3.314 C 18.822 3.119,17.950 3.025,16.960 3.025 C 15.928 3.025,15.421 3.079,14.505 3.287 L 13.891 3.426 13.492 3.140 C 12.751 2.609,11.972 2.266,11.146 2.110 C 10.614 2.009,9.417 2.007,8.871 2.106 M12.327 10.580 C 12.229 10.615,12.052 10.725,11.934 10.824 C 11.374 11.295,11.375 12.230,11.938 12.695 C 12.506 13.164,13.296 13.076,13.740 12.494 C 14.131 11.982,14.074 11.331,13.599 10.870 C 13.240 10.522,12.778 10.417,12.327 10.580 M21.307 10.586 C 20.982 10.700,20.610 11.131,20.531 11.484 C 20.477 11.724,20.481 11.816,20.555 12.071 C 20.805 12.932,21.776 13.270,22.498 12.746 C 22.908 12.450,23.108 11.752,22.915 11.292 C 22.658 10.679,21.940 10.364,21.307 10.586 M15.652 15.035 C 15.393 15.099,15.213 15.246,15.096 15.488 C 14.956 15.777,14.958 15.922,15.107 16.212 C 15.274 16.540,15.453 16.655,15.839 16.683 L 16.160 16.706 16.160 17.152 C 16.160 17.659,16.130 17.699,15.646 17.845 C 15.264 17.960,15.065 17.899,14.749 17.572 C 14.415 17.226,14.314 17.173,13.985 17.173 C 13.518 17.173,13.164 17.528,13.164 17.994 C 13.164 18.262,13.219 18.385,13.482 18.707 C 14.218 19.610,15.525 19.860,16.607 19.306 C 17.009 19.100,17.033 19.094,17.158 19.176 C 17.368 19.313,17.941 19.512,18.287 19.568 C 19.051 19.691,19.856 19.401,20.418 18.801 C 20.614 18.591,20.767 18.372,20.805 18.246 C 20.967 17.704,20.563 17.173,19.989 17.174 C 19.719 17.174,19.493 17.299,19.224 17.595 C 18.905 17.949,18.601 17.989,18.093 17.742 L 17.867 17.632 17.867 17.163 L 17.867 16.693 18.125 16.693 C 18.428 16.693,18.676 16.551,18.870 16.265 C 18.974 16.113,18.992 16.030,18.974 15.798 C 18.948 15.477,18.826 15.280,18.554 15.120 C 18.388 15.022,18.267 15.013,17.093 15.004 C 16.389 14.999,15.741 15.012,15.652 15.035 M8.419 18.135 C 8.634 18.194,8.925 18.302,9.067 18.373 L 9.324 18.504 9.221 18.776 C 8.592 20.429,7.056 21.870,5.124 22.616 C 4.843 22.725,4.537 22.830,4.443 22.850 L 4.272 22.887 4.149 22.497 C 3.978 21.952,3.977 21.046,4.147 20.507 C 4.520 19.325,5.496 18.390,6.647 18.111 C 7.128 17.995,7.953 18.006,8.419 18.135 M10.913 20.750 C 11.022 21.262,10.986 22.077,10.833 22.560 C 10.309 24.214,8.545 25.272,6.865 24.940 C 6.472 24.862,5.813 24.611,5.813 24.539 C 5.813 24.520,6.047 24.404,6.333 24.280 C 8.059 23.531,9.768 22.041,10.575 20.582 C 10.669 20.412,10.765 20.291,10.787 20.313 C 10.810 20.335,10.866 20.532,10.913 20.750 " fill="#1A1C1F" stroke="none" fill-rule="evenodd"></path></svg>
